X: 1
T: Farewell to Whisk(e)y  #2
C: Niel Gow
O: arr. A.Grant
R: reel
Z: 2014 John Chambers <jc:trillian.mit.edu>
S: Page from Boston Slow Scottish Session collection
N: Barbara McOwen's transcription of Aongas Grant's version
N: A few dots added when next note has length 1/8
M: C|
L: 1/8
K: A
(AF) |\
"A"E2A2 cBAc | "Bm"B2F2 "E7"F3A |\
"A"E2A2 "E7"BABc | "A"e2c2 "A7"c3e |\
f2(ga) "A"e2c2 |
"Bm"dcBA "E7"B2c2 |\
"A"E2A2 "E7"cBAB | "A"c2A2 A2 :: f2 |\
"A"e2c2 "F#m"a2c2 | "Bm"dcBA "E7"B2(cd) |
"A"e2c2 a2(cd) | "A"e2a2 "A7"a3e |\
"D"f2(ga) "A"e2c2 | "Bm"dcBA "E7"B2c2 |\
"A"E3A "E7"cBAB | "A"c2"D"A2 "A"A2 :|
